X:1
T:Humours of Tullah, The
R:reel
M:4/4
L:1/8
K:D
d2Ad BdAB|d2fd edBA|d2Ad BdAd|1 Bdef gefe:|2 Bdef g2fg|]
af~f2 df~f2|af~f2 ge~e2|affe dfed|Bdef g2fg|
af~f2 bf~f2|af~f2 ge~e2|affe dfed|Bdef gefe|]
</abc>
